flaticon/programming-line/ux-design.svg

<svg xmlns="http://www.w3.org/2000/svg" width="32" height="32" viewBox="0 0 24 24">
    <path d="M1.855469 4.835938C1.949219 4.835938 2.039062 4.800781 2.105469 4.734375 2.167969 4.667969 2.207031 4.578125 2.207031 4.484375 2.207031 4.394531 2.167969 4.300781 2.105469 4.238281 2.039062 4.171875 1.949219 4.132812 1.855469 4.132812 1.761719 4.132812 1.671875 4.171875 1.605469 4.238281 1.539062 4.300781 1.503906 4.394531 1.503906 4.484375 1.503906 4.578125 1.539062 4.667969 1.605469 4.734375 1.671875 4.800781 1.761719 4.835938 1.855469 4.835938zM2.980469 4.835938C3.074219 4.835938 3.167969 4.800781 3.230469 4.734375 3.296875 4.667969 3.335938 4.578125 3.335938 4.484375 3.335938 4.394531 3.296875 4.300781 3.230469 4.238281 3.167969 4.171875 3.074219 4.132812 2.980469 4.132812 2.890625 4.132812 2.796875 4.171875 2.734375 4.238281 2.667969 4.300781 2.628906 4.394531 2.628906 4.484375 2.628906 4.578125 2.667969 4.667969 2.734375 4.734375 2.796875 4.800781 2.890625 4.835938 2.980469 4.835938zM4.109375 4.835938C4.203125 4.835938 4.292969 4.800781 4.359375 4.734375 4.425781 4.667969 4.460938 4.578125 4.460938 4.484375 4.460938 4.394531 4.425781 4.300781 4.359375 4.238281 4.292969 4.171875 4.203125 4.132812 4.109375 4.132812 4.015625 4.132812 3.925781 4.171875 3.859375 4.238281 3.792969 4.300781 3.757812 4.394531 3.757812 4.484375 3.757812 4.578125 3.792969 4.667969 3.859375 4.734375 3.925781 4.800781 4.015625 4.835938 4.109375 4.835938zM5.613281 4.835938L19.890625 4.835938C20.085938 4.835938 20.242188 4.679688 20.242188 4.484375 20.242188 4.289062 20.085938 4.132812 19.890625 4.132812L5.613281 4.132812C5.417969 4.132812 5.261719 4.289062 5.261719 4.484375 5.261719 4.679688 5.417969 4.835938 5.613281 4.835938zM21.394531 4.835938L22.144531 4.835938C22.339844 4.835938 22.496094 4.679688 22.496094 4.484375 22.496094 4.289062 22.339844 4.132812 22.144531 4.132812L21.394531 4.132812C21.199219 4.132812 21.042969 4.289062 21.042969 4.484375 21.042969 4.679688 21.199219 4.835938 21.394531 4.835938zM20.640625 7.890625L13.878906 7.890625C13.269531 7.890625 12.773438 8.386719 12.773438 8.992188L12.773438 9.019531 12.375 9.019531C11.765625 9.019531 11.273438 9.511719 11.273438 10.121094L11.273438 13.152344 10.472656 13.152344 10.472656 12C10.472656 11.390625 9.976562 10.894531 9.371094 10.894531L3.359375 10.894531C2.75 10.894531 2.253906 11.390625 2.253906 12L2.253906 15.007812C2.253906 15.613281 2.75 16.109375 3.359375 16.109375L9.371094 16.109375C9.976562 16.109375 10.472656 15.613281 10.472656 15.007812L10.472656 13.855469 11.273438 13.855469 11.273438 16.882812C11.273438 17.492188 11.765625 17.988281 12.375 17.988281L12.773438 17.988281 12.773438 18.011719C12.773438 18.621094 13.269531 19.117188 13.878906 19.117188L20.640625 19.117188C21.25 19.117188 21.746094 18.621094 21.746094 18.011719L21.746094 17.261719C21.746094 16.652344 21.25 16.15625 20.640625 16.15625L13.878906 16.15625C13.269531 16.15625 12.773438 16.652344 12.773438 17.261719L12.773438 17.285156 12.375 17.285156C12.15625 17.285156 11.976562 17.105469 11.976562 16.882812L11.976562 13.855469 12.773438 13.855469 12.773438 13.878906C12.773438 14.488281 13.269531 14.980469 13.878906 14.980469L20.640625 14.980469C21.25 14.980469 21.746094 14.488281 21.746094 13.878906L21.746094 13.128906C21.746094 12.519531 21.25 12.023438 20.640625 12.023438L13.878906 12.023438C13.269531 12.023438 12.773438 12.519531 12.773438 13.128906L12.773438 13.152344 11.976562 13.152344 11.976562 10.121094C11.976562 9.902344 12.15625 9.722656 12.375 9.722656L12.773438 9.722656 12.773438 9.746094C12.773438 10.355469 13.269531 10.847656 13.878906 10.847656L20.640625 10.847656C21.25 10.847656 21.746094 10.355469 21.746094 9.746094L21.746094 8.992188C21.746094 8.386719 21.25 7.890625 20.640625 7.890625zM9.769531 15.007812C9.769531 15.226562 9.589844 15.40625 9.371094 15.40625L3.359375 15.40625C3.136719 15.40625 2.957031 15.226562 2.957031 15.007812L2.957031 12C2.957031 11.78125 3.136719 11.601562 3.359375 11.601562L9.371094 11.601562C9.589844 11.601562 9.769531 11.78125 9.769531 12zM13.480469 17.261719C13.480469 17.039062 13.660156 16.859375 13.878906 16.859375L20.640625 16.859375C20.863281 16.859375 21.042969 17.039062 21.042969 17.261719L21.042969 18.011719C21.042969 18.230469 20.863281 18.410156 20.640625 18.410156L13.878906 18.410156C13.660156 18.410156 13.480469 18.230469 13.480469 18.011719zM13.480469 13.128906C13.480469 12.90625 13.660156 12.726562 13.878906 12.726562L20.640625 12.726562C20.863281 12.726562 21.042969 12.90625 21.042969 13.128906L21.042969 13.878906C21.042969 14.097656 20.863281 14.277344 20.640625 14.277344L13.878906 14.277344C13.660156 14.277344 13.480469 14.097656 13.480469 13.878906zM21.042969 9.746094C21.042969 9.964844 20.863281 10.144531 20.640625 10.144531L13.878906 10.144531C13.660156 10.144531 13.480469 9.964844 13.480469 9.746094L13.480469 8.992188C13.480469 8.773438 13.660156 8.59375 13.878906 8.59375L20.640625 8.59375C20.863281 8.59375 21.042969 8.773438 21.042969 8.992188zM21.042969 9.746094"/>
    <path d="M 22.144531 2.628906 L 1.855469 2.628906 C 0.832031 2.628906 0 3.460938 0 4.484375 L 0 19.515625 C 0 20.539062 0.832031 21.371094 1.855469 21.371094 L 22.144531 21.371094 C 23.167969 21.371094 24 20.539062 24 19.515625 L 24 4.484375 C 24 3.460938 23.167969 2.628906 22.144531 2.628906 Z M 1.855469 3.335938 L 22.144531 3.335938 C 22.777344 3.335938 23.296875 3.851562 23.296875 4.484375 L 23.296875 5.636719 L 0.703125 5.636719 L 0.703125 4.484375 C 0.703125 3.851562 1.222656 3.335938 1.855469 3.335938 Z M 22.144531 20.664062 L 1.855469 20.664062 C 1.222656 20.664062 0.703125 20.148438 0.703125 19.515625 L 0.703125 6.339844 L 23.296875 6.339844 L 23.296875 19.515625 C 23.296875 20.148438 22.777344 20.664062 22.144531 20.664062 Z M 22.144531 20.664062"/>
</svg>

<svg xmlns="http://www.w3.org/2000/svg" width="32" height="32" viewBox="0 0 24 24">
    <path d="M1.855 4.836a.351.351 0 0 0 .25-.102.369.369 0 0 0 .102-.25.355.355 0 0 0-.352-.352.355.355 0 0 0-.351.352c0 .094.035.184.101.25a.351.351 0 0 0 .25.102zm0 0M2.98 4.836a.355.355 0 0 0 .355-.352c0-.09-.038-.183-.105-.246a.346.346 0 0 0-.496 0 .346.346 0 0 0 0 .496.342.342 0 0 0 .246.102zm0 0M4.11 4.836a.351.351 0 0 0 .25-.102.351.351 0 0 0 .1-.25.355.355 0 0 0-.352-.352.355.355 0 0 0-.35.352c0 .094.035.184.101.25a.351.351 0 0 0 .25.102zm0 0M5.613 4.836h14.278a.35.35 0 0 0 .351-.352.35.35 0 0 0-.351-.351H5.613a.35.35 0 0 0-.351.351.35.35 0 0 0 .351.352zm0 0M21.395 4.836h.75a.35.35 0 0 0 .351-.352.35.35 0 0 0-.351-.351h-.75a.35.35 0 0 0-.352.351.35.35 0 0 0 .352.352zm0 0M20.64 7.89H13.88c-.61 0-1.106.497-1.106 1.102v.028h-.398a1.1 1.1 0 0 0-1.102 1.101v3.031h-.8V12c0-.61-.496-1.105-1.102-1.105H3.36c-.609 0-1.105.496-1.105 1.105v3.008c0 .605.496 1.101 1.105 1.101h6.012c.606 0 1.102-.496 1.102-1.101v-1.153h.8v3.028c0 .61.493 1.105 1.102 1.105h.398v.024c0 .61.497 1.105 1.106 1.105h6.762c.609 0 1.105-.496 1.105-1.105v-.75c0-.61-.496-1.106-1.105-1.106h-6.762c-.61 0-1.106.496-1.106 1.106v.023h-.398a.401.401 0 0 1-.398-.402v-3.028h.796v.024c0 .61.497 1.101 1.106 1.101h6.762c.609 0 1.105-.492 1.105-1.101v-.75c0-.61-.496-1.106-1.105-1.106h-6.762c-.61 0-1.106.497-1.106 1.106v.023h-.796v-3.03a.4.4 0 0 1 .398-.4h.398v.024c0 .61.497 1.102 1.106 1.102h6.762c.609 0 1.105-.493 1.105-1.102v-.754c0-.605-.496-1.101-1.105-1.101zM9.77 15.009a.4.4 0 0 1-.399.398H3.36a.401.401 0 0 1-.402-.398V12c0-.219.18-.398.402-.398h6.012A.4.4 0 0 1 9.77 12zm3.71 2.254c0-.223.18-.403.399-.403h6.762c.222 0 .402.18.402.403v.75c0 .218-.18.398-.402.398h-6.762a.4.4 0 0 1-.399-.398zm0-4.133c0-.223.18-.402.399-.402h6.762c.222 0 .402.18.402.402v.75c0 .219-.18.398-.402.398h-6.762a.4.4 0 0 1-.399-.398zm7.563-3.383c0 .219-.18.399-.402.399h-6.762a.4.4 0 0 1-.399-.399v-.754a.4.4 0 0 1 .399-.398h6.762c.222 0 .402.18.402.398zm0 0"/>
    <path d="M22.145 2.629H1.855A1.857 1.857 0 0 0 0 4.484v15.032c0 1.023.832 1.855 1.855 1.855h20.29A1.857 1.857 0 0 0 24 19.516V4.484a1.857 1.857 0 0 0-1.855-1.855zm-20.29.707h20.29c.632 0 1.152.516 1.152 1.148v1.153H.703V4.484c0-.632.52-1.148 1.152-1.148zm20.29 17.328H1.855a1.154 1.154 0 0 1-1.152-1.148V6.34h22.594v13.176c0 .632-.52 1.148-1.152 1.148zm0 0"/>
</svg>
